static/img/kroki/af3c6ec22fdc86610f8f3c25d3d6ba56.svg

<?xml version="1.0" encoding="us-ascii" standalone="no"?><svg xmlns="http://www.w3.org/2000/svg" xmlns:xlink="http://www.w3.org/1999/xlink" contentStyleType="text/css" height="152px" preserveAspectRatio="none" style="width:265px;height:152px;" version="1.1" viewBox="0 0 265 152" width="265px" zoomAndPan="magnify"><defs/><g><!--class digitalocean_droplet--><g id="elem_digitalocean_droplet"><rect codeLine="22" fill="#3D176E" height="39.7891" id="digitalocean_droplet" rx="2.5" ry="2.5" style="stroke:#000D19;stroke-width:0.5;" width="211" x="27" y="106.79"/><ellipse cx="42" cy="126.6845" fill="#ADD1B2" rx="11" ry="11" style="stroke:#181818;stroke-width:1.0;"/><path d="M44.9688,132.3252 Q44.3906,132.622 43.75,132.7627 Q43.1094,132.9189 42.4063,132.9189 Q39.9063,132.9189 38.5781,131.2783 Q37.2656,129.622 37.2656,126.497 Q37.2656,123.372 38.5781,121.7158 Q39.9063,120.0595 42.4063,120.0595 Q43.1094,120.0595 43.75,120.2158 Q44.4063,120.372 44.9688,120.6689 L44.9688,123.3877 Q44.3438,122.8095 43.75,122.5439 Q43.1563,122.2627 42.5313,122.2627 Q41.1875,122.2627 40.5,123.3408 Q39.8125,124.4033 39.8125,126.497 Q39.8125,128.5908 40.5,129.6689 Q41.1875,130.7314 42.5313,130.7314 Q43.1563,130.7314 43.75,130.4658 Q44.3438,130.1845 44.9688,129.6064 L44.9688,132.3252 Z " fill="#000000"/><text fill="#D9B8FF" font-family="Helvetica" font-size="17" lengthAdjust="spacing" textLength="169" x="61" y="132.5698">digitalocean_droplet</text></g><!--class digitalocean_droplet_size--><g id="elem_digitalocean_droplet_size"><rect codeLine="24" fill="#3D176E" height="39.7891" id="digitalocean_droplet_size" rx="2.5" ry="2.5" style="stroke:#000D19;stroke-width:0.5;" width="251" x="7" y="7"/><ellipse cx="22" cy="26.8945" fill="#ADD1B2" rx="11" ry="11" style="stroke:#181818;stroke-width:1.0;"/><path d="M24.9688,32.5352 Q24.3906,32.832 23.75,32.9727 Q23.1094,33.1289 22.4063,33.1289 Q19.9063,33.1289 18.5781,31.4883 Q17.2656,29.832 17.2656,26.707 Q17.2656,23.582 18.5781,21.9258 Q19.9063,20.2695 22.4063,20.2695 Q23.1094,20.2695 23.75,20.4258 Q24.4063,20.582 24.9688,20.8789 L24.9688,23.5977 Q24.3438,23.0195 23.75,22.7539 Q23.1563,22.4727 22.5313,22.4727 Q21.1875,22.4727 20.5,23.5508 Q19.8125,24.6133 19.8125,26.707 Q19.8125,28.8008 20.5,29.8789 Q21.1875,30.9414 22.5313,30.9414 Q23.1563,30.9414 23.75,30.6758 Q24.3438,30.3945 24.9688,29.8164 L24.9688,32.5352 Z " fill="#000000"/><text fill="#D9B8FF" font-family="Helvetica" font-size="17" lengthAdjust="spacing" textLength="209" x="41" y="32.7798">digitalocean_droplet_size</text></g><!--link digitalocean_droplet_size to digitalocean_droplet--><g id="link_digitalocean_droplet_size_digitalocean_droplet"><path codeLine="26" d="M132.5,47.22 C132.5,62.49 132.5,83.92 132.5,100.53 " fill="none" id="digitalocean_droplet_size-to-digitalocean_droplet" style="stroke:#1A83AF;stroke-width:2.0;"/><polygon fill="#1A83AF" points="132.5,105.41,136.5,96.41,132.5,100.41,128.5,96.41,132.5,105.41" style="stroke:#1A83AF;stroke-width:2.0;"/></g><!--SRC=[XP1DIyD048Rl_HKBFHSQWoQv26cWwAM8zIPI9jdPT6co6sQdbYh-TurLMPCclSxxy7xCLaiKM3Ty53NMEPARk9qs3H3K8YMoXynMbiHKAL1Xr1MNrl15O0KrYZkiNf5r0LtYQQkBdK7dn9KdBQ3ObMJtHfxicS2uBmaDUrHMWNCfC-byp-YLaKaUAzKbkwRJK0RH3VOmInBf1vdFvp98kiZ5gD7TVyHQlw48_AUjB6ElPY_YcnfjsH9UoTxGNtsmumD8gKqfhhtRuwaJ6QH_z_KMf3sqj8BA-J6EaT3oiS6ijmgJMAheB7m_11VjvuJKfMQeR85WDf9iKo6Bzyd7YBnnxQjRPbYTFK-3D0xJvSlizgp99m00]--></g></svg>

<svg xmlns="http://www.w3.org/2000/svg" width="265" height="152" preserveAspectRatio="none" style="width:265px;height:152px"><rect width="211" height="39.789" x="27" y="106.79" fill="#3D176E" rx="2.5" ry="2.5" style="stroke:#000d19;stroke-width:.5"/><circle cx="42" cy="126.684" r="11" fill="#ADD1B2" style="stroke:#181818;stroke-width:1"/><path d="M44.969 132.325q-.578.297-1.219.438-.64.156-1.344.156-2.5 0-3.828-1.64-1.312-1.657-1.312-4.782t1.312-4.781q1.328-1.656 3.828-1.656.703 0 1.344.156.656.156 1.219.453v2.719q-.625-.579-1.219-.844-.594-.281-1.219-.281-1.343 0-2.031 1.078-.688 1.062-.688 3.156 0 2.094.688 3.172.688 1.062 2.031 1.062.625 0 1.219-.265.594-.281 1.219-.86v2.72Z"/><text x="61" y="132.57" fill="#D9B8FF" font-family="Helvetica" font-size="17" textLength="169">digitalocean_droplet</text><rect width="251" height="39.789" x="7" y="7" fill="#3D176E" rx="2.5" ry="2.5" style="stroke:#000d19;stroke-width:.5"/><circle cx="22" cy="26.895" r="11" fill="#ADD1B2" style="stroke:#181818;stroke-width:1"/><path d="M24.969 32.535q-.578.297-1.219.438-.64.156-1.344.156-2.5 0-3.828-1.64-1.312-1.657-1.312-4.782t1.312-4.781q1.328-1.656 3.828-1.656.703 0 1.344.156.656.156 1.219.453v2.719q-.625-.578-1.219-.844-.594-.281-1.219-.281-1.343 0-2.031 1.078-.688 1.062-.688 3.156 0 2.094.688 3.172.688 1.062 2.031 1.062.625 0 1.219-.265.594-.281 1.219-.86v2.72Z"/><text x="41" y="32.78" fill="#D9B8FF" font-family="Helvetica" font-size="17" textLength="209">digitalocean_droplet_size</text><path fill="none" d="M132.5 47.22v53.31" style="stroke:#1a83af;stroke-width:2"/><path fill="#1A83AF" d="m132.5 105.41 4-9-4 4-4-4 4 9z" style="stroke:#1a83af;stroke-width:2"/></svg>
